X: 88
T:King of Poland
M:6/8
L:1/8
Q:120
S:Playford
K:Gm
B2 G B2 c| dcd G2 A| Bcd  f2 d| dcd G3| B2 G B2 c| dcd G2 A| Bcd f2 d| dcd G3:|
|: g2 a b>ag| ^f>=ef g3 G| G2 A B>cd| f2 d c>BA| B>cd g2 d| B>AG G3 :|

